src/assets/3-users/icn_Recruiter_selected@1.5x.svg

<?xml version="1.0" encoding="UTF-8"?>
<svg width="89px" height="89px" viewBox="0 0 89 89" version="1.1" xmlns="http://www.w3.org/2000/svg" xmlns:xlink="http://www.w3.org/1999/xlink">
    <!-- Generator: sketchtool 63.1 (101010) - https://sketch.com -->
    <title>788C77C0-2713-4BC8-B9C1-7CA2A871D3F5@1.5x</title>
    <desc>Created with sketchtool.</desc>
    <defs>
        <polygon id="path-1" points="0 88.083 88.018 88.083 88.018 0 0 0"></polygon>
    </defs>
    <g id="Design" stroke="none" stroke-width="1" fill="none" fill-rule="evenodd">
        <g id="01_Internapp_Landing" transform="translate(-451.000000, -487.000000)">
            <g id="Group" transform="translate(399.000000, 359.000000)">
                <g id="icn_Recruiter_selected" transform="translate(52.000000, 128.000000)">
                    <path d="M43.8842,8.7819 C47.6172,8.7819 50.9422,10.5509 53.0812,13.2859 L41.8982,21.7409 L37.6112,17.4509 L35.8422,19.2199 L41.6682,25.0499 L54.4052,15.4209 C55.1412,16.9509 55.5672,18.6579 55.5672,20.4679 C55.5672,26.9089 50.3252,32.1509 43.8832,32.1509 C37.4402,32.1509 32.1972,26.9089 32.1972,20.4679 C32.1972,14.0249 37.4412,8.7819 43.8842,8.7819 M43.8842,34.6499 C51.7052,34.6499 58.0682,28.2869 58.0682,20.4669 C58.0682,18.0909 57.4742,15.8529 56.4372,13.8839 L61.7972,9.8309 L60.2892,7.8369 L55.0722,11.7799 C52.4752,8.4419 48.4312,6.2809 43.8842,6.2809 C36.0632,6.2809 29.6982,12.6439 29.6982,20.4659 C29.6982,28.2859 36.0632,34.6499 43.8842,34.6499" id="Fill-1" fill="#F52851"></path>
                    <path d="M65.0248,75.1998 L57.1858,75.1998 L57.1858,63.1088 L54.6858,63.1088 L54.6858,75.1998 L33.1098,75.1998 L33.1098,63.1088 L30.6098,63.1088 L30.6098,75.1998 L23.7418,75.1998 L23.7418,60.1418 C23.7418,53.2238 27.1738,47.1038 32.4128,43.3558 L44.4498,64.7818 L55.4418,42.7388 C61.1928,46.4068 65.0258,52.8278 65.0258,60.1408 L65.0258,75.1998 L65.0248,75.1998 Z M24.1908,48.8598 C22.2808,52.1788 21.2418,56.0478 21.2418,60.1418 L21.2428,77.6998 L67.5268,77.6998 L67.5248,60.1418 C67.5248,55.9328 66.3918,51.9878 64.4218,48.5838 C64.4218,48.5838 62.9158,46.2908 62.7558,46.0848 C58.4908,40.5898 51.8638,36.9988 44.3848,36.9988 C36.8648,36.9988 30.1718,40.6068 25.9438,46.1808 C25.9438,46.1808 25.3388,46.8638 24.1908,48.8598 L24.1908,48.8598 Z M47.7518,39.7988 L46.0948,43.2248 L41.8548,43.2248 L40.1388,39.9418 C41.5098,39.6538 42.9288,39.4987937 44.3838,39.4987937 C45.5328,39.4978 46.6518,39.6158 47.7518,39.7988 L47.7518,39.7988 Z M49.6178,48.8158 L48.2228,44.5638 L50.2538,40.3598 C51.2928,40.6688 52.2878,41.0668 53.2518,41.5278 L49.6178,48.8158 Z M42.0208,45.7248 L45.9738,45.7248 L48.0318,51.9978 L44.3188,59.4438 L40.1108,51.9528 L42.0208,45.7248 Z M39.7528,44.5988 L38.4198,48.9418 L34.5248,42.0108 C35.5268,41.4628 36.5878,41.0138 37.6818,40.6368 L39.7528,44.5988 Z" id="Fill-3" fill="#F52851"></path>
                    <mask id="mask-2" fill="white">
                        <use xlink:href="#path-1"></use>
                    </mask>
                    <g id="Clip-6"></g>
                    <polygon id="Fill-5" fill="#F52851" mask="url(#mask-2)" points="22.492 83.417 66.276 83.417 66.276 80.917 22.492 80.917"></polygon>
                    <polygon id="Fill-7" fill="#F52851" mask="url(#mask-2)" points="22.492 88.083 32.832 88.083 32.832 85.583 22.492 85.583"></polygon>
                    <polygon id="Fill-8" fill="#F52851" mask="url(#mask-2)" points="35.879 88.083 66.275 88.083 66.275 85.583 35.879 85.583"></polygon>
                    <polygon id="Fill-9" fill="#F52851" mask="url(#mask-2)" points="42.632 3.667 45.132 3.667 45.132 0 42.632 0"></polygon>
                    <polygon id="Fill-10" fill="#F52851" mask="url(#mask-2)" points="23.879 21.716 27.66 21.716 27.66 19.216 23.879 19.216"></polygon>
                    <polygon id="Fill-11" fill="#F52851" mask="url(#mask-2)" points="60.636 21.716 64.417 21.716 64.417 19.216 60.636 19.216"></polygon>
                    <path d="M64.4897,48.4118 C66.4887,47.4208 68.6977,46.8958 70.9527,46.8958 C78.9827,46.8958 85.5147,53.4298 85.5147,61.4598 L85.5147,71.9908 L85.5167,71.9908 L68.7317,71.9908 L68.7317,74.4908 L88.0177,74.4908 L88.0177,61.4608 L88.0167,61.4608 C88.0167,52.0528 80.3627,44.3968 70.9537,44.3968 C68.2027,44.3968 65.5067,45.0578 63.0877,46.3148 L64.4897,48.4118 Z" id="Fill-12" fill-opacity="0.4" fill="#F52851" mask="url(#mask-2)"></path>
                    <path d="M70.3861,24.6451 C74.8481,24.6451 78.4791,28.2751 78.4791,32.7381 C78.4791,37.2011 74.8481,40.8321 70.3861,40.8321 C65.9241,40.8321 62.2931,37.2011 62.2931,32.7381 C62.2931,28.2751 65.9241,24.6451 70.3861,24.6451 M59.7931,32.7371 C59.7931,38.5781 64.5451,43.3311 70.3861,43.3311 C76.2271,43.3311 80.9791,38.5791 80.9791,32.7371 C80.9791,26.8961 76.2271,22.1441 70.3861,22.1441 C64.5451,22.1441 59.7931,26.8971 59.7931,32.7371" id="Fill-13" fill-opacity="0.4" fill="#F52851" mask="url(#mask-2)"></path>
                    <path d="M25.2729,46.4996 C22.7659,45.1216 19.9519,44.3966 17.0629,44.3966 C7.6539,44.3966 -0.0001,52.0526 -0.0001,61.4606 L-0.0001,74.4906 L20.1329,74.4906 L20.1329,71.9906 L2.4989,71.9906 L2.4989,61.4606 C2.4989,53.4306 9.0319,46.8966 17.0619,46.8966 C19.4619,46.8966 21.7989,47.4856 23.8949,48.6016 L25.2729,46.4996 Z" id="Fill-14" fill-opacity="0.4" fill="#F52851" mask="url(#mask-2)"></path>
                    <path d="M17.1811,24.6451 C21.6431,24.6451 25.2731,28.2751 25.2731,32.7381 C25.2731,37.2011 21.6431,40.8321 17.1811,40.8321 C12.7191,40.8321 9.0881,37.2011 9.0881,32.7381 C9.0881,28.2751 12.7181,24.6451 17.1811,24.6451 M17.1811,43.3311 C23.0221,43.3311 27.7731,38.5791 27.7731,32.7371 C27.7731,26.8961 23.0221,22.1441 17.1811,22.1441 C11.3401,22.1441 6.5881,26.8961 6.5881,32.7371 C6.5881,38.5791 11.3401,43.3311 17.1811,43.3311" id="Fill-15" fill-opacity="0.4" fill="#F52851" mask="url(#mask-2)"></path>
                    <polyline id="Stroke-16" stroke="#FFFFFF" stroke-width="3" mask="url(#mask-2)" points="36.5883 18.4723 41.6503 23.3003 61.0033 8.7823"></polyline>
                </g>
            </g>
        </g>
    </g>
</svg>

<svg xmlns="http://www.w3.org/2000/svg" width="88.018" height="88.083" viewBox="0 0 88.018 88.083"><defs><style>.a,.b{fill:#f52851;}.b,.c{fill-rule:evenodd;}.c{fill:rgba(245,40,81,0.4);}</style></defs><g transform="translate(0)"><g transform="translate(-451 -347)"><g transform="translate(399 324)"><g transform="translate(52 23)"><path class="a" d="M-165.814-462.631A14.2,14.2,0,0,1-180-476.815,14.2,14.2,0,0,1-165.814-491a14.1,14.1,0,0,1,11.188,5.5l1.365,2.1a14.187,14.187,0,0,1,1.631,6.583A14.2,14.2,0,0,1-165.814-462.631Zm0-25.786a11.615,11.615,0,0,0-11.6,11.6,11.615,11.615,0,0,0,11.6,11.6,11.613,11.613,0,0,0,11.6-11.6,11.449,11.449,0,0,0-1.334-5.384l-1.116-1.721A11.531,11.531,0,0,0-165.814-488.417Z" transform="translate(209.698 497.281)"/><path class="b" d="M65.025,75.2H57.186V63.109h-2.5V75.2H33.11V63.109h-2.5V75.2H23.742V60.142a20.616,20.616,0,0,1,8.671-16.786L44.45,64.782,55.442,42.739a20.629,20.629,0,0,1,9.584,17.4V75.2ZM24.191,48.86a22.553,22.553,0,0,0-2.949,11.282V77.7H67.527l0-17.558a23,23,0,0,0-3.1-11.558s-1.506-2.293-1.666-2.5a23.112,23.112,0,0,0-36.812.1,18.384,18.384,0,0,0-1.753,2.679ZM47.752,39.8l-1.657,3.426h-4.24l-1.716-3.283a20.626,20.626,0,0,1,4.245-.443,20.347,20.347,0,0,1,3.368.3Zm1.866,9.017-1.4-4.252,2.031-4.2a20.467,20.467,0,0,1,3,1.168Zm-7.6-3.091h3.953L48.032,52l-3.713,7.446-4.208-7.491ZM39.753,44.6,38.42,48.942l-3.9-6.931a20.457,20.457,0,0,1,3.157-1.374Z"/><path class="b" d="M22.492,83.417H66.276v-2.5H22.492Z"/><path class="b" d="M22.492,88.083h10.34v-2.5H22.492Z"/><path class="b" d="M35.879,88.083h30.4v-2.5h-30.4Z"/><path class="b" d="M42.632,3.667h2.5V0h-2.5Z"/><path class="b" d="M23.879,21.716H27.66v-2.5H23.879Z"/><path class="b" d="M60.636,21.716h3.781v-2.5H60.636Z"/><path class="c" d="M64.49,48.412A14.557,14.557,0,0,1,85.515,61.46V71.991H68.732v2.5H88.018V61.461h0A17.068,17.068,0,0,0,63.088,46.315Z"/><path class="c" d="M70.386,24.645a8.094,8.094,0,1,1-8.093,8.093,8.1,8.1,0,0,1,8.093-8.093M59.793,32.737A10.593,10.593,0,1,0,70.386,22.144,10.606,10.606,0,0,0,59.793,32.737"/><path class="c" d="M25.273,46.5A17.066,17.066,0,0,0,0,61.461v13.03H20.133v-2.5H2.5V61.461A14.559,14.559,0,0,1,23.895,48.6Z"/><path class="c" d="M17.181,24.645a8.094,8.094,0,1,1-8.093,8.093,8.1,8.1,0,0,1,8.093-8.093m0,18.686A10.594,10.594,0,1,0,6.588,32.737,10.6,10.6,0,0,0,17.181,43.331"/></g></g></g></g></svg>
